proprietary/assets/icons/energie-en-chemie/kernongeval.svg

<svg enable-background="new 0 0 64 64" height="64" viewBox="0 0 64 64" width="64" xmlns="http://www.w3.org/2000/svg"><path d="m0 0h64v64h-64z" fill="none"/><path d="m18.1 32.9c-.6-3.4-6.7-5-9.9-1.6-3.8 3.9-.6 9.2-.6 9.2s-4.3 1.9-3.6 6.5c.9 5.6 6.5 5.4 6.5 5.4s-3.2-2-3-6c.1-3 4.5-4.5 4.5-4.5s-4-4.8-1-7.9 7.1-1.1 7.1-1.1zm40.2-3c-.5-9.6-9.2-16.9-19.3-16.9s-18.8 7.3-19.3 16.9l-.7 11.7 4.7 6.1 4.4-1 3.9 7.6-4.3-4.6-4.7 1.2-4.4-4-.6 13.1h42zm-19.3 3.8c1.3 0 2.3 1 2.3 2.3s-1 2.3-2.3 2.3-2.3-1-2.3-2.3 1-2.3 2.3-2.3zm-11.1 2.3c0-4.1 2.2-7.7 5.6-9.6l3.4 5.8c-1.3.8-2.2 2.2-2.2 3.8zm11.1 11.1c-2 0-3.9-.5-5.5-1.5l3.4-5.8c.6.4 1.4.6 2.2.6s1.5-.2 2.2-.6l3.4 5.8c-1.8.9-3.7 1.5-5.7 1.5zm4.4-11.1c0-1.6-.9-3-2.2-3.8l3.4-5.8c3.3 1.9 5.6 5.5 5.6 9.6z"/></svg>

<?xml version="1.0" encoding="utf-8"?>
<!-- Generator: Adobe Illustrator 21.0.2, SVG Export Plug-In . SVG Version: 6.00 Build 0)  -->
<!DOCTYPE svg PUBLIC "-//W3C//DTD SVG 1.1//EN" "http://www.w3.org/Graphics/SVG/1.1/DTD/svg11.dtd">
<svg version="1.1" xmlns="http://www.w3.org/2000/svg" xmlns:xlink="http://www.w3.org/1999/xlink" x="0px" y="0px" width="64px"
	 height="64px" viewBox="0 0 64 64" style="enable-background:new 0 0 64 64;" xml:space="preserve">
<style type="text/css">
	.st0{fill:none;}
</style>
<g id="_x36_4px_Box">
	<rect class="st0" width="64" height="64"/>
</g>
<g id="Icon">
	<g>
		<g>
			<path d="M18.1,32.9c-0.6-3.4-6.7-5-9.9-1.6c-3.8,3.9-0.6,9.2-0.6,9.2S3.3,42.4,4,47c0.9,5.6,6.5,5.4,6.5,5.4s-3.2-2-3-6
				c0.1-3,4.5-4.5,4.5-4.5S8,37.1,11,34C14,30.9,18.1,32.9,18.1,32.9z M58.3,29.9C57.8,20.3,49.1,13,39,13s-18.8,7.3-19.3,16.9
				L19,41.6l4.7,6.1l4.4-1l3.9,7.6l-4.3-4.6l-4.7,1.2l-4.4-4L18,60h42L58.3,29.9z M39,33.7c1.3,0,2.3,1,2.3,2.3c0,1.3-1,2.3-2.3,2.3
				c-1.3,0-2.3-1-2.3-2.3C36.7,34.7,37.7,33.7,39,33.7z M27.9,36c0-4.1,2.2-7.7,5.6-9.6l3.4,5.8c-1.3,0.8-2.2,2.2-2.2,3.8H27.9z
				 M39,47.1c-2,0-3.9-0.5-5.5-1.5l3.4-5.8c0.6,0.4,1.4,0.6,2.2,0.6c0.8,0,1.5-0.2,2.2-0.6l3.4,5.8C42.9,46.5,41,47.1,39,47.1z
				 M43.4,36c0-1.6-0.9-3-2.2-3.8l3.4-5.8c3.3,1.9,5.6,5.5,5.6,9.6H43.4z"/>
		</g>
	</g>
</g>
</svg>
